X: 1741
T: AMILIE QUICK-STEP
O: Arranged by J. H. Seipp
B: Oliver Ditson "The Boston Collection of Instrumental Music" 1910 p.174-175
F: http://conquest.imslp.info/files/imglnks/usimg/8/8f/IMSLP175643-PMLP309456-bostoncollection00bost_bw.pdf
%: 2012 John Chambers <jc:trillian.mit.edu>
N: The initial pickup notes don't agree in length.  Fixed.
N: V:1 has "8va AD LIB" over the initial trumpet-call motifs (3 beats); play them up an octave if you like.
M: 2/4
L: 1/16
K: Eb
% -------------------------
V: 1
K: C
"Eb CLARINET"!f!G |\
G2zG G2zG | (EG).c.e g2 (ga) | (gG)(Bf) d2(ga) | (gG)(cg) e2zg |\
G2zG G2zG | (EG)ce g2 (ga) | (gG)(Bf) d2(Ge) | c4 z2 H|] G2 !f!|\
(Gf)dB d3g | (ge)ce d3g |
(ge)ce d3G | (Ge)cE G3G |\
(Gf)dB d3g | (ge)ce d3g | (ge)ce d3g | (gece) g2z "_D.C."|]\
[M:6/8][L:1/8] !p!z |\
(F6 | E6) | (F6 | E6) |
F2F F2F | E2E E2E | F2F F2F | E3- E2 "_D.C."|]\
[M:2/4][L:1/16][K:F]\
"^TRIO"!p!c2 |\
a3e (fc).A.F | d2 c4 c2 | a3e (fc).A.F | d2 c4 c2 |\
c(dc=B cde)f | ^f2 g4 g2 |
b3a (bg)ec | d2 c4 c2 |\
a2(ab) c'2c'2 | c'2 d4 b2- | b(c=Bc def)g | ^g2 a4 a2 |\
a2(ab) c'2c'2 | c'2 d4 b2- | b(c=Bc) a3g | "_D.C. AL FINE"f4 z2 |]
% -------------------------
V: 2
K: F
"1st Bb CLARINET"c |\
c2zc c2zc | (Ac).f.a c'2z2 | e2e2e2z2 | !/!f6 zc |\
c2zc c2zc | (Ac)fa c'2z2 | !/!e8 | f4 z2 H|] z2 |
G4!trem1!c4 | (A2c2) (G2c2) |
(A2c2) (G2c2) | A4!trem1!c4 |\
G4!trem1!c4 | (A2c2) (G2c2) | (A2c2) (G2c2) | (G2c2) e2z "_D.C."|]\
[M:6/8][L:1/8] !p!c |\
(cgc g2)c | (cfA c2)c | (cgc gc)a | f3- f2c |
(cgc g2)c | (cfA c2)c | c(gc gc)a | f3- f2 |]\
[M:2/4][L:1/16][K:Bb]\
"^TRIO"!p!z2 |\
z2d2 z2d2 | z2d2 z2d2 | z2d2 z2d2 | z2d2 z2d2 |\
z2e2 z2e2 | z2e2 z2e2 |
z2c2 z2e2 | z2e2 z2e2 |
z2d2 z2f2 | z2e2 z2e2 | z2e2 z2e2 | z2d2 z2d2 |\
z2d2 z2f2 | z2e2 z2e2 | z2e2 z2e2 | "_D.C. AL FINE"d4 z2 |]
% -------------------------
V: 3
K: F
"2d Bb CLARINET"A |\
A2zA A2zA | (FA).c.f a2z2 | B2B2B2z2 | !/!A6 zA |\
A2zA A2zA | (FA).c.f a2z2 | !/!B8 | A4 z2 H|] z2 |\
E4!trem1!C4 | (F2A2) (E2C2) |
(A2c2) (E2C2) | F4!trem1!A4 |\
E4!trem1!C4 | (F2A2) (E2C2) | (F2A2) (E2C2) | (F2A2) G2z "_D.C."|]\
[M:6/8][L:1/8] !p!z |\
(E6 | F6) | (E6 | F6) |
E2E E2E | F2F F2F | E2E E2E | F3- F2 "_D.C."|]\
[M:2/4][L:1/16][K:Bb]\
"^TRIO"!p!z2 |\
z2B2 z2B2 | z2B2 z2B2 | z2B2 z2B2 | z2B2 z2B2 | z2A2 z2A2 | z2A2 z2A2 |
z2A2 z2c2 | z2A2 z2A2 | z2B2 z2B2 | z2B2 z2B2 | z2A2 z2A2 | z2B2 z2B2 |
z2B2 z2B2 | z2B2 z2B2 | z2A2 z2A2 | "_D.C. AL FINE"B4 z2 |]
% -------------------------
V: 4 clef=bass middle=d
K: Eb
"TROMBONE AND OPHICLEIDE"z |\
[e'2e2]z2 [e'2e2]z2 | [e'2e2][e'2e2][e'2e2]z2 | [b2B2][b2B2][b2B2]z2 | [b2e2][b2e2][b2e2]z2 |\
[e'2e2]z2 [e'2e2]z2 | !/![e'6e6]z2 | !/![b8B8] | [b4e4E4] z2 H|] z2 |\
b6b2 & B4B4 | b6b2 & B4B4 |
b6b2 & B4B4 | [e4E4][e2E2][e2E2] |\
b6b2 & B4B4 | b6b2 & B4B4 | b6b2 & B4B4 | [b2B2][b2B2][b2B2] z"_D.C."|]\
[M:6/8][L:1/8] !p!z |\
b6- & B2zB2z | b6 & B2zB2z | b6- & B2zB2z | b6 & e2B G2E |
b2b b2b & B2zB2z | b2b b2b & B2zB2z | b2b b2b & B2zB2z |  b3- b2 & eBG E2 "_D.C."|]\
[M:2/4][L:1/16][K:Ab]\
"^TRIO"!p!z2 |\
z2e'2 z2e'2 & A2z2 a2z2 | z2e'2 z2e'2 & A2z2 a2z2 |\
z2e'2 z2e'2 & A2z2 a2z2 | z2e'2 z2e'2 & A2z2 a2z2 |\
z2e'2 z2e'2 & E2z2 e2z2 | z2e'2 z2e'2 & E2z2 e2z2 |
z2e'2 z2e'2 & E2z2 e2z2 | z2e'2 z2e'2 & E2z2 e2z2 |\
z2e'2 z2e'2 & A2z2 c2z2 | z2f'2 z2f'2 & d2z2 d2z2 |\
z2e'2 z2e'2 & e2z2 e2z2 | z2e'2 z2e'2 & A2z2 a2z2 |\
z2e'2 z2e'2 & A2z2 c2z2 | z2f'2 z2f'2 & d2z2 d2z2 |\
z2e'2 z2e'2 & e2z2 [e2E2]z2 | "_D.C. AL FINE"e'4x2 & [a4A4]z2 |]

% "Tune 1" on this page is the end of the previous pages' tune.

%%sep 1 1 500
%%sep 1 1 500
